MonoIcons/scalable/status/audio-volume-muted-symbolic-rtl.svg

<?xml version="1.0" encoding="UTF-8"?>
<svg height="16px" viewBox="0 0 16 16" width="16px" xmlns="http://www.w3.org/2000/svg">
    <g fill="#2e3436">
        <path d="m 9 1.007812 c 0.296875 -0.003906 0.578125 0.125 0.769531 0.351563 l 3.230469 3.640625 h 1 c 1.09375 0 2 0.84375 2 2 v 2 c 0 1.089844 -0.910156 2 -2 2 h -1 l -3.230469 3.640625 c -0.210937 0.253906 -0.492187 0.363281 -0.769531 0.359375 z m 0 0"/>
        <path d="m 6 5 c 0.265625 0 0.519531 0.105469 0.707031 0.292969 c 0.390625 0.390625 0.390625 1.023437 0 1.414062 l -1.292969 1.292969 l 1.292969 1.292969 c 0.390625 0.390625 0.390625 1.023437 0 1.414062 s -1.023437 0.390625 -1.414062 0 l -1.292969 -1.292969 l -1.292969 1.292969 c -0.390625 0.390625 -1.023437 0.390625 -1.414062 0 s -0.390625 -1.023437 0 -1.414062 l 1.292969 -1.292969 l -1.292969 -1.292969 c -0.390625 -0.390625 -0.390625 -1.023437 0 -1.414062 c 0.1875 -0.1875 0.441406 -0.292969 0.707031 -0.292969 s 0.519531 0.105469 0.707031 0.292969 l 1.292969 1.292969 l 1.292969 -1.292969 c 0.1875 -0.1875 0.441406 -0.292969 0.707031 -0.292969 z m 0 0"/>
    </g>
</svg>

<svg width="16" height="16" viewBox="0 0 16 16" fill="none" xmlns="http://www.w3.org/2000/svg">
<g clip-path="url(#clip0_231_1229)">
<path d="M9 1.00765C9.29688 1.00375 9.57813 1.13265 9.76953 1.35922L13 4.99985H14C15.0938 4.99985 16 5.8436 16 6.99985V8.99985C16 10.0897 15.0899 10.9999 14 10.9999H13L9.76953 14.6405C9.55859 14.8944 9.27734 15.0038 9 14.9999V1.00765Z" fill="#2E3436"/>
<path d="M6.00001 5C6.26563 5 6.51954 5.10547 6.70704 5.29297C7.09766 5.68359 7.09766 6.31641 6.70704 6.70703L5.41407 8L6.70704 9.29297C7.09766 9.6836 7.09766 10.3164 6.70704 10.707C6.31641 11.0977 5.6836 11.0977 5.29297 10.707L4 9.41407L2.70703 10.707C2.31641 11.0977 1.68359 11.0977 1.29297 10.707C0.902344 10.3164 0.902344 9.6836 1.29297 9.29297L2.58594 8L1.29297 6.70703C0.902344 6.31641 0.902344 5.68359 1.29297 5.29297C1.48047 5.10547 1.73438 5 2 5C2.26563 5 2.51953 5.10547 2.70703 5.29297L4 6.58594L5.29297 5.29297C5.48047 5.10547 5.73438 5 6.00001 5V5Z" fill="#2E3436"/>
</g>
<defs>
<clipPath id="clip0_231_1229">
<rect width="16" height="16" fill="white"/>
</clipPath>
</defs>
</svg>
